images-source/features/branding.svg

<?xml version="1.0" encoding="UTF-8"?>
<svg width="65px" height="53px" viewBox="0 0 65 53" version="1.1" xmlns="http://www.w3.org/2000/svg" xmlns:xlink="http://www.w3.org/1999/xlink">
    <!-- Generator: Sketch 48.2 (47327) - http://www.bohemiancoding.com/sketch -->
    <title>branding</title>
    <desc>Created with Sketch.</desc>
    <defs></defs>
    <g id="platform" stroke="none" stroke-width="1" fill="none" fill-rule="evenodd" transform="translate(-599.000000, -7653.000000)">
        <g id="Group-6" transform="translate(30.000000, 7509.000000)">
            <g id="Group-5" transform="translate(569.000000, 137.000000)">
                <g id="branding" transform="translate(0.000000, 7.000000)">
                    <g id="paint-board-and-brush">
                        <circle id="Oval-6" fill="#FFAF1D" cx="38" cy="15" r="5"></circle>
                        <circle id="Oval-6-Copy" fill="#008215" cx="24" cy="11" r="5"></circle>
                        <circle id="Oval-6-Copy-3" fill="#00AAE3" cx="12" cy="34" r="5"></circle>
                        <circle id="Oval-6-Copy-2" fill="#DE437D" cx="13" cy="20" r="5"></circle>
                        <path d="M63.6880146,1.70319024 C63.5665756,1.3957561 63.2866634,1.17944878 62.9584927,1.13930732 C62.6312732,1.09929268 62.3068439,1.24184878 62.1148878,1.51091707 C60.9753268,3.1087122 59.4798829,3.64126829 57.7475854,4.25803902 C56.3508146,4.75559024 54.9063561,5.26969268 53.345278,6.39048293 C51.1374976,7.97546829 50.1276195,10.1360683 50.6311951,12.1838537 L50.5773561,12.2528488 C49.6554341,10.9154341 48.6523415,9.67846829 47.593761,8.5739122 C42.6411415,3.40619024 35.7207659,0.299317073 28.6065317,0.0502243902 C28.2931366,0.0392536585 27.9746049,0.0336731707 27.6598146,0.0336731707 C19.7159268,0.0336731707 12.1123854,3.58489268 6.79893659,9.7764439 C1.51332683,15.9360341 -0.8294,23.9543073 0.371673171,31.775361 C0.472058537,32.4291024 0.597746341,33.0896293 0.745502439,33.7389951 C2.69905366,42.3377024 7.68870732,48.878922 14.4351366,51.6848293 C16.098122,52.3766195 17.7755659,52.7271756 19.4202244,52.7271756 C23.5064098,52.7271756 27.0755122,50.5416537 29.2125854,46.7310049 C30.0249268,45.2810293 30.5491122,43.7815268 30.769922,42.2738439 C30.9001122,41.3839463 30.8111415,40.4948098 30.7248341,39.6331317 C30.6359902,38.7462146 30.5520927,37.9080634 30.6863415,37.0641415 C30.9940293,35.129678 32.3452683,33.9745805 34.3011024,33.9745805 C34.857439,33.9745805 35.4259512,34.0661512 35.9937024,34.2469463 C35.3289902,35.4660293 34.7252829,36.6301317 34.1978,37.7091317 C33.0798634,39.9958 32.3087415,41.8895512 31.9051073,43.3371805 C31.6563317,44.2299317 30.995361,46.6024634 32.6071073,47.721161 C33.1189268,48.0763463 33.7679122,48.2017171 34.443278,48.0760927 C35.0519317,47.9630244 36.9038927,47.6189366 42.1664829,41.6279024 C43.5789171,40.0202146 45.1009317,38.1596927 46.6917512,36.0970049 C50.7756537,34.7215415 53.9538049,31.2986098 54.7945561,27.3653171 C55.0050293,26.3820732 55.0927951,25.3298341 55.0553805,24.2368195 C56.5844341,21.8737366 57.9255902,19.6688732 59.2751805,17.298561 C59.3010537,17.252839 59.3266098,17.2041366 59.3518488,17.1542293 C61.3106634,16.6177415 62.9977463,15.0933171 63.9880927,12.9616341 C65.4338829,9.85044878 65.3272829,5.85190244 63.6878878,1.70319024 L63.6880146,1.70319024 Z M41.6100195,16.4354244 C40.9015512,17.5605902 39.6838,18.2323415 38.3520927,18.2323415 C37.629039,18.2323415 36.9217756,18.0277659 36.3069707,17.6405561 C35.4378098,17.0930976 34.8333415,16.2399805 34.6059366,15.2384098 C34.3785317,14.236839 34.5540634,13.2063512 35.1017122,12.3370634 C35.8103073,11.2118976 37.0282488,10.5401463 38.3599561,10.5401463 C39.0831366,10.5401463 39.7902732,10.744722 40.4049512,11.132122 C41.2741122,11.6792634 41.8783902,12.5323805 42.1059854,13.534078 C42.3333902,14.535839 42.1574146,15.5661366 41.6100829,16.4354244 L41.6100195,16.4354244 Z M46.6017024,23.4032976 C48.5459317,20.5386049 50.6020244,17.6910976 52.5550049,15.1581902 C52.8715707,15.4441268 53.2256146,15.7234049 53.6090829,15.9894927 C54.2444976,16.4304146 54.9090829,16.7713317 55.5879366,17.004761 C53.9390927,19.8244927 52.1661463,22.6180341 50.019561,25.779761 C46.4925659,30.9765268 42.825361,35.8037756 39.6932488,39.3724341 C37.9438293,41.3656829 36.4128098,42.9046927 35.2330439,43.857878 C35.688361,42.4012439 36.5586,40.402161 37.7696927,38.0334976 C39.9353659,33.7979073 43.0719805,28.6021561 46.6017024,23.4032976 Z M12.4658585,23.3786293 C11.742678,23.3786293 11.0354146,23.1740537 10.4204195,22.7866537 C9.55125854,22.239322 8.94710732,21.3865854 8.7195122,20.3846976 C8.49191707,19.3829366 8.66808293,18.3525122 9.21573171,17.4832244 C9.92388293,16.3582488 11.1418244,15.6864341 12.4733415,15.6864341 C13.1967122,15.6864341 13.9039756,15.8910098 14.5187805,16.2784098 C16.3130341,17.408522 16.8535805,19.7876488 15.7242293,21.5815854 C15.0153171,22.706878 13.7972488,23.3786927 12.4658585,23.3786927 L12.4658585,23.3786293 Z M8.43452683,31.8470195 C9.14299512,30.7217268 10.3607463,30.0499122 11.6924537,30.0499122 C12.4155073,30.0499122 13.1225805,30.254678 13.7377024,30.6418878 C14.6068634,31.1892195 15.2110146,32.0421463 15.4386098,33.0438439 C15.6663317,34.0452878 15.4901659,35.0755854 14.9423902,35.9451902 C14.234239,37.070039 13.0162976,37.7419805 11.6847805,37.7419805 C10.9616,37.7419805 10.2541463,37.5374049 9.6390878,37.1500049 C8.76992683,36.6025463 8.16596585,35.7497463 7.93849756,34.7480488 C7.71121951,33.7466049 7.8875122,32.7161805 8.43452683,31.8470195 Z M20.7506634,9.00659024 C21.4591317,7.88142439 22.6770098,7.20967317 24.0085902,7.20967317 C24.7315171,7.20967317 25.4387171,7.41424878 26.0535854,7.80145854 C27.8479659,8.93125366 28.3885122,11.3105707 27.2590341,13.1048244 C26.5502488,14.2301171 25.3323707,14.9019317 24.0007902,14.9019317 C23.2777366,14.9019317 22.5704732,14.6973561 21.9556683,14.3099561 C21.0866341,13.7628146 20.4826732,12.9098878 20.255078,11.908 C20.0271659,10.9064293 20.2033951,9.87613171 20.7506634,9.00665366 L20.7506634,9.00659024 Z" id="Shape" fill="#4D4D4D" fill-rule="nonzero"></path>
                    </g>
                </g>
            </g>
        </g>
    </g>
</svg>

<svg width="65" height="53" viewBox="0 0 65 53" xmlns="http://www.w3.org/2000/svg"><title>branding</title><g fill="none" fill-rule="evenodd"><circle fill="#FFAF1D" cx="38" cy="15" r="5"/><circle fill="#008215" cx="24" cy="11" r="5"/><circle fill="#00AAE3" cx="12" cy="34" r="5"/><circle fill="#DE437D" cx="13" cy="20" r="5"/><path d="M63.688 1.703a.902.902 0 0 0-1.573-.192c-1.14 1.598-2.635 2.13-4.367 2.747-1.397.498-2.842 1.012-4.403 2.132-2.208 1.585-3.217 3.746-2.714 5.794l-.054.069a29.623 29.623 0 0 0-2.983-3.68C42.64 3.407 35.72.3 28.607.05a27.186 27.186 0 0 0-.947-.016c-7.944 0-15.548 3.55-20.861 9.742-5.286 6.16-7.628 14.178-6.427 22 .1.653.226 1.314.374 1.963 1.953 8.599 6.943 15.14 13.69 17.946 1.662.692 3.34 1.042 4.984 1.042 4.086 0 7.656-2.185 9.793-5.996.812-1.45 1.336-2.95 1.557-4.457.13-.89.041-1.78-.045-2.64-.089-.888-.173-1.726-.039-2.57.308-1.934 1.66-3.09 3.615-3.09.556 0 1.125.092 1.693.273a88.368 88.368 0 0 0-1.796 3.462c-1.118 2.287-1.89 4.18-2.293 5.628-.249.893-.91 3.265.702 4.384.512.355 1.16.48 1.836.355.609-.113 2.46-.457 7.723-6.448a113.199 113.199 0 0 0 4.526-5.531c4.084-1.375 7.262-4.798 8.103-8.732.21-.983.298-2.035.26-3.128 1.53-2.363 2.87-4.568 4.22-6.938.026-.046.052-.095.077-.145 1.959-.536 3.646-2.06 4.636-4.192 1.446-3.112 1.34-7.11-.3-11.259zM41.61 16.435a3.829 3.829 0 0 1-3.258 1.797c-.723 0-1.43-.204-2.045-.591a3.82 3.82 0 0 1-1.701-2.403 3.82 3.82 0 0 1 .496-2.9 3.83 3.83 0 0 1 3.258-1.798c.723 0 1.43.205 2.045.592a3.82 3.82 0 0 1 1.701 2.402 3.822 3.822 0 0 1-.496 2.901zm4.992 6.968c1.944-2.864 4-5.712 5.953-8.245.317.286.67.565 1.054.831a8.1 8.1 0 0 0 1.979 1.016c-1.649 2.82-3.422 5.613-5.568 8.775-3.527 5.197-7.195 10.024-10.327 13.592-1.75 1.994-3.28 3.533-4.46 4.486.455-1.457 1.326-3.456 2.537-5.825 2.165-4.235 5.302-9.43 8.832-14.63zm-34.136-.024c-.723 0-1.43-.205-2.046-.592a3.82 3.82 0 0 1-1.7-2.402 3.82 3.82 0 0 1 .496-2.902 3.828 3.828 0 0 1 3.257-1.797c.724 0 1.431.205 2.046.592a3.85 3.85 0 0 1 1.205 5.304 3.83 3.83 0 0 1-3.258 1.797zm-4.031 8.468a3.829 3.829 0 0 1 3.257-1.797c.724 0 1.43.205 2.046.592a3.82 3.82 0 0 1 1.7 2.402 3.819 3.819 0 0 1-.496 2.901 3.829 3.829 0 0 1-3.257 1.797c-.723 0-1.43-.205-2.046-.592a3.82 3.82 0 0 1-1.7-2.402 3.823 3.823 0 0 1 .496-2.901zM20.75 9.007a3.829 3.829 0 0 1 3.258-1.797c.723 0 1.43.204 2.045.591a3.85 3.85 0 0 1 1.205 5.304 3.83 3.83 0 0 1-3.258 1.797c-.723 0-1.43-.205-2.045-.592a3.82 3.82 0 0 1-1.7-2.402 3.82 3.82 0 0 1 .495-2.901z" fill="#4D4D4D" fill-rule="nonzero"/></g></svg>
